assets/img/podcast/listen/breaker.svg

<svg xmlns="http://www.w3.org/2000/svg" width="100" height="30" fill="none" viewBox="0 0 100 30"><rect width="100" height="30" fill="#fff"/><rect width="100" height="30" fill="#fff"/><rect width="100" height="30" fill="#000"/><g filter="url(#filter0_d)"><path fill="url(#paint0_radial)" d="M5.01596 9.8185C5.01594 9.18655 5.14106 8.56084 5.3841 7.97749C5.62714 7.39414 5.98329 6.86469 6.432 6.41969C6.88071 5.97468 7.41309 5.62294 7.99844 5.38475C8.58379 5.14656 9.21051 5.02664 9.84245 5.0319H20.2134C21.4829 5.0319 22.7004 5.53621 23.598 6.43387C24.4957 7.33153 25 8.54902 25 9.8185V20.1895C25 21.4695 24.4915 22.6972 23.5864 23.6023C22.6812 24.5074 21.4536 25.0159 20.1735 25.0159H9.84245C8.56238 25.0159 7.33475 24.5074 6.42961 23.6023C5.52446 22.6972 5.01596 21.4695 5.01596 20.1895V9.8185Z"/><path fill="#FFDB66" fill-opacity=".1" d="M11.8688 5L14.6051 17.9956L14.7407 5H14.8524L14.9721 17.9956L17.7244 5H17.8281L15.3789 18.0674L20.9633 5.05584H21.0511L15.7698 18.227L23.7475 6.56362L23.8034 6.62744L16.065 18.4424L24.992 9.70682V9.87435L16.3363 18.7216L24.992 13.0654V13.2649L16.5676 19.0247L25 15.6422V15.8337L16.7112 19.3997L24.992 17.852V18.0594L16.783 19.8225L24.992 19.9182V20.1256L16.783 20.2134L24.6889 21.8728C24.6889 21.9525 24.633 22.0164 24.6011 22.0802L16.7032 20.5963L23.6199 23.5481L23.4444 23.7236L16.5676 20.9075L21.9605 24.6091L21.6733 24.7128L16.3283 21.2266L19.9821 24.9521H19.5832L16.057 21.4978L18.3067 24.9521H17.9478L15.73 21.7611L17.0383 25.008H16.6953L15.3789 21.8967L15.9533 24.9761H15.6263L14.9721 21.9765V24.9761H14.645V21.9765L14.0148 24.9761H13.6877L14.2701 21.8967L12.8979 24.9761H12.5788L13.8712 21.7451L11.6693 24.9761H11.3024L13.56 21.5297L10.0259 24.9761H9.62705L13.2649 21.2505L8.04747 24.6091L7.79219 24.5134L13.0415 20.9154L6.42003 23.572C6.3599 23.5149 6.30392 23.4536 6.2525 23.3885L12.866 20.5644L5.39889 21.9765C5.39889 21.8967 5.34304 21.8249 5.31911 21.7611L12.8341 20.1655L5.05585 20.0778V19.8624L12.8022 19.8225L5.01596 18.1472V17.9318L12.8899 19.4156L5.01596 16.0411V15.8337L13.0335 19.0247L5.05585 13.5281V13.3127L13.2888 18.6897L5.01596 10.2972V10.1057L13.5361 18.4344L6.00519 6.89868C6.01759 6.86813 6.04013 6.84278 6.06901 6.82688L13.8632 18.227L8.58995 5.15158H8.67771L14.2142 18.0674L11.781 5H11.8688Z"/><path fill="#0069FF" d="M24.992 20.357C24.9815 21.5857 24.486 22.7605 23.6134 23.6256C22.7408 24.4908 21.5618 24.9761 20.3331 24.9761H16.7671C14.9783 22.9465 13.6212 20.5742 12.7782 18.0036C13.0046 18.6632 13.4 19.2519 13.9249 19.7111C14.4498 20.1702 15.086 20.4837 15.7699 20.6203C17.1247 20.9139 18.5081 21.0557 19.8943 21.0431C21.6163 21.0399 23.3304 20.8092 24.992 20.357Z"/><path fill="#5C9DFF" d="M16.7591 24.9761H9.6749C9.30933 24.979 8.94483 24.9362 8.58994 24.8484C8.65376 24.3698 8.74151 23.8911 8.82927 23.4204C9.53571 19.9626 11.1492 16.755 13.5042 14.1264C12.896 14.8556 12.5679 15.7777 12.5788 16.7272C12.5809 17.1563 12.6537 17.5821 12.7942 17.9876C13.6412 20.5565 14.9979 22.9279 16.783 24.9601C16.783 24.9601 16.7511 24.9681 16.7591 24.9761Z"/><path fill="#B2D2FF" d="M8.58995 24.8644C7.56814 24.6191 6.65851 24.0373 6.00737 23.2125C5.35622 22.3878 5.00141 21.368 5 20.3171V14.1504C8.85677 12.4371 13.1545 11.9794 17.2856 12.842C17.0221 12.7964 16.7553 12.7724 16.4878 12.7702C15.9237 12.7701 15.3661 12.8912 14.8527 13.1251C14.3393 13.3591 13.8822 13.7006 13.5122 14.1265C11.1466 16.753 9.52695 19.9648 8.8213 23.4284C8.74152 23.8911 8.66441 24.3698 8.58995 24.8644Z"/><path fill="#D9E9FF" d="M13.1771 12.4112C14.5576 12.4096 15.9344 12.5513 17.2856 12.8341C17.961 12.9735 18.5887 13.2857 19.1074 13.7401C19.6261 14.1945 20.0182 14.7757 20.2453 15.4268L20.3012 15.5864L20.2453 15.4268C18.8334 11.1534 16.0231 7.48031 12.2677 5H9.68289C8.44653 5 7.26068 5.4906 6.38569 6.36409C5.5107 7.23759 5.01807 8.42259 5.01596 9.65896V14.1504C7.58328 13.0017 10.3645 12.409 13.1771 12.4112Z"/><path fill="#fff" d="M24.992 14.9641V9.65896C24.9899 8.42397 24.4984 7.24017 23.6251 6.36691C22.7519 5.49364 21.5681 5.00211 20.3331 5H12.2756C16.0762 7.51413 18.9069 11.248 20.3012 15.5864C20.3969 15.9055 20.5245 16.3841 20.6282 16.7112C22.2468 16.6784 23.7981 16.0574 24.992 14.9641Z"/><path fill="#003DAD" d="M9.26006 24.9601C8.81548 24.9257 8.37921 24.8207 7.96768 24.649C8.0315 24.1863 8.1033 23.7236 8.19106 23.2768C8.94306 19.7182 10.6124 16.418 13.0335 13.7036C13.2243 13.4928 13.4296 13.2956 13.6478 13.1133H13.1771C10.3622 13.0798 7.57575 13.6796 5.02393 14.8684V13.4404C7.60106 12.3385 10.3743 11.7686 13.1771 11.7651C14.6 11.7657 16.0193 11.91 17.4132 12.1959C17.6872 12.2497 17.9546 12.3326 18.211 12.4432C16.5329 9.36407 14.0516 6.79735 11.0311 5.01596H13.4244C16.9553 7.59378 19.578 11.2247 20.9154 15.3869C20.9713 15.5704 21.0431 15.7858 21.1069 16.0172C22.6035 15.8555 23.9859 15.1415 24.984 14.0148V15.8337C23.7345 16.8012 22.2081 17.3436 20.6282 17.3813H20.1017L19.9661 16.8708C19.8704 16.5118 19.7427 16.073 19.647 15.7698C19.4732 15.1964 19.1481 14.6805 18.7058 14.2762C18.2636 13.8719 17.7207 13.5942 17.134 13.4723C16.9217 13.427 16.7049 13.4056 16.4878 13.4085C16.0181 13.4087 15.5538 13.5092 15.1259 13.7032C14.6981 13.8971 14.3165 14.1802 14.0068 14.5333C13.4659 15.1204 13.1791 15.8976 13.209 16.6953C13.206 17.0558 13.2626 17.4143 13.3765 17.7563C13.5618 18.302 13.8869 18.7895 14.3195 19.1703C14.752 19.551 15.2769 19.8117 15.8416 19.9262C17.1508 20.2184 18.4891 20.3602 19.8305 20.349C21.5692 20.3524 23.3003 20.1189 24.9761 19.655V20.3012C24.9782 20.5469 24.9595 20.7925 24.9202 21.0351C23.2566 21.4576 21.5469 21.672 19.8305 21.6733C18.3984 21.6795 16.97 21.5297 15.5704 21.2266C15.2962 21.1738 15.0286 21.0909 14.7726 20.9793C15.4577 22.2396 16.2848 23.4173 17.2377 24.4894L17.6526 24.9521H15.8735C14.211 22.9446 12.9368 20.6451 12.1161 18.1711C12.0299 17.8975 11.9659 17.6174 11.9246 17.3335C10.7529 19.2373 9.92653 21.333 9.48344 23.5241C9.38771 24.0188 9.32389 24.4815 9.26006 24.9601Z"/></g><rect width="66" height="24" x="31" y="3" fill="#fff"/><path fill="#000" d="M48.8535 19C50.3574 19 51.2754 18.2334 51.2754 16.998C51.2754 16.0801 50.6211 15.3965 49.6738 15.3086V15.2207C50.3818 15.1084 50.9287 14.4541 50.9287 13.7119C50.9287 12.6279 50.123 11.9541 48.7852 11.9541H45.8408V19H48.8535ZM47.1006 12.9551H48.4775C49.2393 12.9551 49.6836 13.3164 49.6836 13.9365C49.6836 14.5713 49.21 14.918 48.3164 14.918H47.1006V12.9551ZM47.1006 17.999V15.8262H48.5166C49.4785 15.8262 49.9863 16.1973 49.9863 16.9004C49.9863 17.6182 49.4932 17.999 48.5654 17.999H47.1006ZM52.5205 19H53.7314V15.9141C53.7314 15.167 54.2783 14.6787 55.0645 14.6787C55.2695 14.6787 55.5918 14.7129 55.6846 14.7471V13.624C55.5723 13.5898 55.3574 13.5703 55.1816 13.5703C54.4932 13.5703 53.917 13.9609 53.7705 14.4883H53.6875V13.6582H52.5205V19ZM58.7852 14.5127C59.5127 14.5127 59.9912 15.0205 60.0156 15.8115H57.501C57.5547 15.0303 58.0625 14.5127 58.7852 14.5127ZM60.0254 17.5303C59.8496 17.9258 59.4346 18.1455 58.834 18.1455C58.0381 18.1455 57.5254 17.5889 57.4961 16.7002V16.6367H61.2266V16.2461C61.2266 14.5615 60.3135 13.5508 58.79 13.5508C57.2422 13.5508 56.2803 14.6299 56.2803 16.3486C56.2803 18.0674 57.2275 19.1074 58.7998 19.1074C60.0596 19.1074 60.9434 18.502 61.1729 17.5303H60.0254ZM64.2686 18.1357C63.7314 18.1357 63.3457 17.8672 63.3457 17.418C63.3457 16.9834 63.6631 16.7393 64.3418 16.6953L65.5479 16.6172V17.042C65.5479 17.6621 65.001 18.1357 64.2686 18.1357ZM63.9121 19.0879C64.6104 19.0879 65.1963 18.7852 65.4941 18.2676H65.5771V19H66.7441V15.3525C66.7441 14.2197 65.9727 13.5508 64.6006 13.5508C63.3311 13.5508 62.4473 14.1514 62.3496 15.0938H63.4922C63.6045 14.7324 63.9854 14.5371 64.542 14.5371C65.1963 14.5371 65.5479 14.8301 65.5479 15.3525V15.8018L64.1709 15.8848C62.8721 15.9629 62.1445 16.5195 62.1445 17.4863C62.1445 18.4629 62.8818 19.0879 63.9121 19.0879ZM69.5469 15.8359H69.4639V11.5928H68.2529V19H69.4639V17.1396L69.8936 16.71L71.6074 19H73.0723L70.7969 15.9482L72.9258 13.6582H71.5195L69.5469 15.8359ZM75.9531 14.5127C76.6807 14.5127 77.1592 15.0205 77.1836 15.8115H74.6689C74.7227 15.0303 75.2305 14.5127 75.9531 14.5127ZM77.1934 17.5303C77.0176 17.9258 76.6025 18.1455 76.002 18.1455C75.2061 18.1455 74.6934 17.5889 74.6641 16.7002V16.6367H78.3945V16.2461C78.3945 14.5615 77.4814 13.5508 75.958 13.5508C74.4102 13.5508 73.4482 14.6299 73.4482 16.3486C73.4482 18.0674 74.3955 19.1074 75.9678 19.1074C77.2275 19.1074 78.1113 18.502 78.3408 17.5303H77.1934ZM79.6104 19H80.8213V15.9141C80.8213 15.167 81.3682 14.6787 82.1543 14.6787C82.3594 14.6787 82.6816 14.7129 82.7744 14.7471V13.624C82.6621 13.5898 82.4473 13.5703 82.2715 13.5703C81.583 13.5703 81.0068 13.9609 80.8604 14.4883H80.7773V13.6582H79.6104V19Z"/><defs><filter id="filter0_d" width="28" height="28.016" x="5" y="1" color-interpolation-filters="sRGB" filterUnits="userSpaceOnUse"><feFlood flood-opacity="0" result="BackgroundImageFix"/><feColorMatrix in="SourceAlpha" type="matrix" values="0 0 0 0 0 0 0 0 0 0 0 0 0 0 0 0 0 0 127 0"/><feOffset dx="4"/><feGaussianBlur stdDeviation="2"/><feColorMatrix type="matrix" values="0 0 0 0 1 0 0 0 0 1 0 0 0 0 1 0 0 0 0.25 0"/><feBlend in2="BackgroundImageFix" mode="normal" result="effect1_dropShadow"/><feBlend in="SourceGraphic" in2="effect1_dropShadow" mode="normal" result="shape"/></filter><radialGradient id="paint0_radial" cx="0" cy="0" r="1" gradientTransform="translate(13.3569 18.9488) scale(14.0692)" gradientUnits="userSpaceOnUse"><stop stop-color="#FFF266"/><stop offset=".17" stop-color="#FFA866"/><stop offset=".38" stop-color="#FF7066"/><stop offset=".66" stop-color="#FF40C0"/></radialGradient></defs></svg>

<svg xmlns="http://www.w3.org/2000/svg" width="100" height="30" fill="none"><path fill="#fff" d="M0 0H100V30H0z"/><path fill="#fff" d="M0 0H100V30H0z"/><path fill="#000" d="M0 0H100V30H0z"/><g filter="url(#filter0_d)"><path fill="url(#paint0_radial)" d="M5.016 9.819a4.787 4.787 0 0 1 4.826-4.787h10.371A4.786 4.786 0 0 1 25 9.819v10.37a4.827 4.827 0 0 1-4.826 4.827H9.841a4.827 4.827 0 0 1-4.826-4.826V9.817z"/><path fill="#FFDB66" fill-opacity=".1" d="M11.869 5l2.736 12.996L14.741 5h.111l.12 12.996L17.724 5h.104l-2.45 13.067 5.585-13.011h.088L15.77 18.227l7.977-11.663.056.063-7.738 11.815 8.927-8.735v.167l-8.656 8.848 8.656-5.657v.2l-8.424 5.76L25 15.642v.192L16.711 19.4l8.281-1.548v.207l-8.209 1.764 8.209.095v.208l-8.209.087 7.906 1.66c0 .08-.056.143-.088.207l-7.898-1.484 6.917 2.952-.176.176-6.876-2.817 5.392 3.702-.287.104-5.345-3.486 3.654 3.725h-.399l-3.526-3.454 2.25 3.454h-.36l-2.217-3.19 1.308 3.246h-.343l-1.316-3.111.574 3.08h-.327l-.654-3v3h-.327v-3l-.63 3h-.327l.582-3.08-1.372 3.08h-.32l1.293-3.232-2.202 3.231h-.367l2.258-3.446-3.534 3.446h-.399l3.638-3.726-5.218 3.36-.255-.097 5.25-3.598-6.622 2.657a1.742 1.742 0 0 1-.167-.183l6.613-2.825-7.467 1.413c0-.08-.056-.152-.08-.216l7.515-1.595-7.778-.088v-.216l7.746-.04-7.786-1.675v-.215l7.874 1.484-7.874-3.375v-.207l8.018 3.19-7.978-5.496v-.215l8.233 5.377-8.273-8.393v-.191l8.52 8.328L6.006 6.9a.144.144 0 0 1 .063-.072l7.794 11.4L8.59 5.152h.088l5.536 12.915L11.781 5h.088z"/><path fill="#0069FF" d="M24.992 20.357a4.659 4.659 0 0 1-4.659 4.62h-3.566a19.945 19.945 0 0 1-3.989-6.973 3.99 3.99 0 0 0 2.992 2.616c1.355.294 2.738.436 4.124.423a19.551 19.551 0 0 0 5.098-.686z"/><path fill="#5C9DFF" d="M16.76 24.976H9.674c-.366.003-.73-.04-1.085-.128.064-.478.152-.957.24-1.428a19.897 19.897 0 0 1 4.674-9.294 3.989 3.989 0 0 0-.925 2.601c.002.43.075.855.215 1.26a20.104 20.104 0 0 0 3.989 6.973s-.032.008-.024.016z"/><path fill="#B2D2FF" d="M8.59 24.864A4.683 4.683 0 0 1 5 20.317V14.15a20.128 20.128 0 0 1 12.286-1.308 4.915 4.915 0 0 0-.798-.072 3.942 3.942 0 0 0-2.976 1.357 19.808 19.808 0 0 0-4.69 9.301c-.08.463-.158.942-.232 1.436z"/><path fill="#D9E9FF" d="M13.177 12.411c1.38-.001 2.757.14 4.109.423a3.988 3.988 0 0 1 2.96 2.593l.055.16-.056-.16A20.024 20.024 0 0 0 12.268 5H9.683a4.667 4.667 0 0 0-4.667 4.659v4.491a19.944 19.944 0 0 1 8.161-1.739z"/><path fill="#fff" d="M24.992 14.964V9.66A4.667 4.667 0 0 0 20.333 5h-8.057A20.048 20.048 0 0 1 20.3 15.586c.096.32.224.798.327 1.125a6.661 6.661 0 0 0 4.364-1.747z"/><path fill="#003DAD" d="M9.26 24.96a4.197 4.197 0 0 1-1.292-.311c.063-.463.135-.925.223-1.372a20.862 20.862 0 0 1 4.842-9.573c.191-.211.397-.408.615-.59h-.47a18.778 18.778 0 0 0-8.154 1.754V13.44a20.805 20.805 0 0 1 12.39-1.244c.273.054.54.137.797.247a19.402 19.402 0 0 0-7.18-7.427h2.393a20.67 20.67 0 0 1 7.491 10.37c.056.184.128.4.192.631a6.047 6.047 0 0 0 3.877-2.002v1.819a7.403 7.403 0 0 1-4.356 1.547h-.526l-.136-.51a28.167 28.167 0 0 0-.319-1.101 3.334 3.334 0 0 0-2.513-2.298 3.302 3.302 0 0 0-3.127 1.061 3.024 3.024 0 0 0-.798 2.162c-.003.36.054.72.168 1.061a3.295 3.295 0 0 0 2.465 2.17c1.309.292 2.647.434 3.989.423 1.738.003 3.47-.23 5.145-.694v.646c.002.246-.017.492-.056.734a20.741 20.741 0 0 1-5.09.638 19.724 19.724 0 0 1-4.26-.446 3.79 3.79 0 0 1-.797-.248 18.797 18.797 0 0 0 2.465 3.51l.415.463h-1.78a20.996 20.996 0 0 1-3.757-6.78 5.35 5.35 0 0 1-.191-.838 18.994 18.994 0 0 0-2.442 6.19c-.095.495-.16.957-.223 1.436z"/></g><path fill="#fff" d="M31 3H97V27H31z"/><path fill="#000" d="M48.853 19c1.504 0 2.422-.767 2.422-2.002 0-.918-.654-1.602-1.601-1.69v-.087c.708-.113 1.255-.767 1.255-1.51 0-1.083-.806-1.757-2.144-1.757h-2.944V19h3.012zm-1.752-6.045h1.377c.761 0 1.206.361 1.206.982 0 .634-.474.981-1.368.981h-1.215v-1.963zm0 5.044v-2.173h1.416c.961 0 1.47.371 1.47 1.074 0 .718-.494 1.099-1.422 1.099h-1.464zM52.52 19h1.21v-3.086c0-.747.547-1.235 1.334-1.235.205 0 .527.034.62.068v-1.123a2.085 2.085 0 0 0-.503-.054c-.689 0-1.265.39-1.412.918h-.083v-.83h-1.166V19zm6.264-4.487c.728 0 1.206.508 1.23 1.299h-2.514c.054-.782.562-1.3 1.284-1.3zm1.24 3.017c-.175.396-.59.615-1.191.615-.796 0-1.309-.556-1.338-1.445v-.063h3.73v-.39c0-1.685-.913-2.696-2.436-2.696-1.548 0-2.51 1.079-2.51 2.798 0 1.718.947 2.758 2.52 2.758 1.26 0 2.143-.605 2.373-1.577h-1.148zm4.244.606c-.538 0-.923-.269-.923-.718 0-.435.317-.679.996-.723l1.206-.078v.425c0 .62-.547 1.094-1.28 1.094zm-.357.952c.698 0 1.284-.303 1.582-.82h.083V19h1.167v-3.648c0-1.132-.771-1.801-2.143-1.801-1.27 0-2.154.6-2.251 1.543h1.142c.113-.362.493-.557 1.05-.557.654 0 1.006.293 1.006.815v.45l-1.377.083c-1.299.078-2.027.635-2.027 1.601 0 .977.738 1.602 1.768 1.602zm5.635-3.252h-.083v-4.243h-1.211V19h1.21v-1.86l.43-.43L71.608 19h1.465l-2.275-3.052 2.129-2.29h-1.407l-1.972 2.178zm6.406-1.323c.728 0 1.206.508 1.23 1.299H74.67c.054-.782.562-1.3 1.284-1.3zm1.24 3.017c-.175.396-.59.615-1.191.615-.796 0-1.309-.556-1.338-1.445v-.063h3.73v-.39c0-1.685-.913-2.696-2.436-2.696-1.548 0-2.51 1.079-2.51 2.798 0 1.718.948 2.758 2.52 2.758 1.26 0 2.143-.605 2.373-1.577h-1.148zM79.61 19h1.211v-3.086c0-.747.547-1.235 1.333-1.235.205 0 .528.034.62.068v-1.123a2.084 2.084 0 0 0-.502-.054c-.689 0-1.265.39-1.412.918h-.083v-.83H79.61V19z"/><defs><filter id="filter0_d" width="28" height="28.016" x="5" y="1" color-interpolation-filters="sRGB" filterUnits="userSpaceOnUse"><feFlood flood-opacity="0" result="BackgroundImageFix"/><feColorMatrix in="SourceAlpha" values="0 0 0 0 0 0 0 0 0 0 0 0 0 0 0 0 0 0 127 0"/><feOffset dx="4"/><feGaussianBlur stdDeviation="2"/><feColorMatrix values="0 0 0 0 1 0 0 0 0 1 0 0 0 0 1 0 0 0 0.25 0"/><feBlend in2="BackgroundImageFix" result="effect1_dropShadow"/><feBlend in="SourceGraphic" in2="effect1_dropShadow" result="shape"/></filter><radialGradient id="paint0_radial" cx="0" cy="0" r="1" gradientTransform="translate(13.357 18.949) scale(14.0692)" gradientUnits="userSpaceOnUse"><stop stop-color="#FFF266"/><stop offset=".17" stop-color="#FFA866"/><stop offset=".38" stop-color="#FF7066"/><stop offset=".66" stop-color="#FF40C0"/></radialGradient></defs></svg>
